packages/foundations/assets/icons/functional/images/food/knife_and_fork_28.svg

<svg width="28" height="28" viewBox="0 0 28 28" fill="none" xmlns="http://www.w3.org/2000/svg">
<g clip-path="url(#clip0_2208_3695)">
<path fill-rule="evenodd" clip-rule="evenodd" d="M8.75 7.8739V2.6239C8.75 2.15906 9.13281 1.7489 9.625 1.7489C10.1172 1.7489 10.5 2.15906 10.5 2.6239V7.8739C10.5 8.35715 10.1082 8.7489 9.625 8.7489C9.14175 8.7489 8.75 8.35715 8.75 7.8739ZM7 7.85323C7 9.31386 8.17578 10.4989 9.625 10.4989C11.0742 10.4989 12.25 9.31386 12.25 7.85323V2.6239C12.25 2.15906 12.6328 1.7489 13.125 1.7489C13.6172 1.7489 14 2.15906 14 2.6239V7.8739C14 10.0067 12.4961 11.7567 10.5 12.1669V25.3739C10.5 25.8387 10.1172 26.2489 9.625 26.2489C9.13281 26.2489 8.75 25.8387 8.75 25.3739V12.1669C6.75391 11.7567 5.25 10.0067 5.25 7.8739V2.6239C5.25 2.15906 5.63281 1.7489 6.125 1.7489C6.61719 1.7489 7 2.15906 7 2.6239V7.85323ZM16.625 16.6239V7.02625C16.625 4.12781 18.9766 1.7489 21.875 1.7489C22.3672 1.7489 22.75 2.15906 22.75 2.65125V25.3761C22.75 25.8409 22.3672 26.2511 21.875 26.2511C21.3828 26.2511 21 25.8409 21 25.3761V17.4989H17.5C17.0168 17.4989 16.625 17.1072 16.625 16.6239ZM18.375 15.7489H21V3.60828C19.4688 3.99109 18.375 5.38562 18.375 6.9989V15.7489Z" fill="#1A1C1F"/>
</g>
<defs>
<clipPath id="clip0_2208_3695">
<rect width="28" height="28" fill="white"/>
</clipPath>
</defs>
</svg>

<svg xmlns="http://www.w3.org/2000/svg" width="28" height="28" fill="none"><g clip-path="url(#a)"><path fill="#1A1C1F" fill-rule="evenodd" d="M8.75 7.874v-5.25c0-.465.383-.875.875-.875s.875.41.875.875v5.25a.875.875 0 0 1-1.75 0M7 7.854a2.636 2.636 0 0 0 2.625 2.645 2.636 2.636 0 0 0 2.625-2.646v-5.23c0-.464.383-.874.875-.874s.875.41.875.875v5.25a4.374 4.374 0 0 1-3.5 4.293v13.207a.88.88 0 0 1-.875.875.88.88 0 0 1-.875-.875V12.167a4.374 4.374 0 0 1-3.5-4.293v-5.25c0-.465.383-.875.875-.875s.875.41.875.875zm9.625 8.77V7.026c0-2.898 2.352-5.277 5.25-5.277.492 0 .875.41.875.902v22.725a.88.88 0 0 1-.875.875.88.88 0 0 1-.875-.875V17.5h-3.5a.875.875 0 0 1-.875-.875m1.75-.875H21V3.609a3.49 3.49 0 0 0-2.625 3.39z" clip-rule="evenodd"/></g><defs><clipPath id="a"><path fill="#fff" d="M0 0h28v28H0z"/></clipPath></defs></svg>
